;FLAVOR:Marlin
;TIME:4409
;Filament used: 4.08201m
;Layer height: 0.15
;MINX:78.9
;MINY:56.485
;MINZ:0.3
;MAXX:142.314
;MAXY:88.433
;MAXZ:48
;ZOFFSETPROCESSED
;Generated with Cura_SteamEngine 5.3.0
M140 S60
M105
M190 S60
M104 S200
M105
M109 S200
M82 ;absolute extrusion mode
G28 ;Home
G1 Z15.0 F6000 ;Move the platform down 15mm
;Prime the extruder
G92 E0
G1 F200 E3
G92 E0
G92 E0
G92 E0
G1 F1500 E-6.5
;LAYER_COUNT:319
;LAYER:0
M107
G0 F3600 X81.313 Y61.058 Z2.65 ;adjusted by z offset
G92 Z0.3 ;consider this the original z before offset
;TYPE:SKIRT
G1 F1500 E0
G1 F1800 X82.808 Y59.767 E0.11333
G1 X84.603 Y58.737 E0.23207
G1 X85.978 Y58.331 E0.31432
G1 X87.51 Y58.069 E0.40349
G1 X111.629 Y56.584 E1.78991
G1 X112.703 Y56.564 E1.85154
G1 X113.428 Y56.587 E1.89316
G1 X114.626 Y56.647 E1.96198
G1 X115.381 Y56.73 E2.00556
G1 X116.511 Y56.905 E2.07116
G1 X117.287 Y57.056 E2.11652
G1 X118.236 Y57.279 E2.17245
G1 X119.44 Y57.624 E2.24431
G1 X120.264 Y57.903 E2.29422
G1 X121.009 Y58.184 E2.3399
G1 X121.808 Y58.518 E2.38959
G1 X122.642 Y58.905 E2.44234
G1 X123.783 Y59.517 E2.51662
G1 X124.842 Y60.147 E2.58732
G1 X126.018 Y60.948 E2.66896
G1 X126.729 Y61.483 E2.72001
G1 X127.923 Y62.519 E2.8107
G1 X128.625 Y63.18 E2.86603
G1 X129.185 Y63.753 E2.91199
G1 X130.054 Y64.745 E2.98766
G1 X130.59 Y65.408 E3.03657
G1 X131.143 Y66.157 E3.08999
G1 X131.844 Y67.197 E3.16195
G1 X132.88 Y68.938 E3.27818
G1 X133.507 Y71.478 E3.42829
G1 X133.466 Y73.604 E3.55029
G1 X133.068 Y75.243 E3.64705
G1 X132.553 Y76.649 E3.73296
G1 X131.574 Y78.207 E3.83853
G1 X131.224 Y78.724 E3.87435
G1 X130.672 Y79.479 E3.92801
G1 X130.215 Y80.061 E3.97047
G1 X129.688 Y80.68 E4.01711
G1 X128.875 Y81.573 E4.0864
G1 X127.769 Y82.631 E4.17421
G1 X126.922 Y83.355 E4.23814
G1 X126.069 Y84.002 E4.29957
G1 X125.159 Y84.644 E4.36346
G1 X124.483 Y85.076 E4.40949
G1 X123.71 Y85.532 E4.46098
G1 X122.232 Y86.285 E4.55615
G1 X121.336 Y86.685 E4.61245
G1 X120.291 Y87.096 E4.67687
G1 X119.071 Y87.491 E4.75045
G1 X117.961 Y87.791 E4.81642
G1 X116.897 Y88.027 E4.87895
G1 X115.506 Y88.243 E4.95971
G1 X114.597 Y88.345 E5.01219
G1 X113.056 Y88.433 E5.10075
G1 X111.639 Y88.415 E5.18205
G1 X86.911 Y86.909 E6.60342
G1 X85.196 Y86.473 E6.70494
G1 X84.006 Y85.92 E6.78023
G1 X82.25 Y84.839 E6.89854
G1 X80.672 Y83.162 E7.03065
G1 X79.583 Y81.267 E7.15605
G1 X78.988 Y79.13 E7.28332
G1 X78.902 Y78.559 E7.31645
G1 X78.9 Y66.528 E8.00671
G1 X79.119 Y65.07 E8.0913
G1 X79.965 Y62.904 E8.22472
G1 X81.313 Y61.058 E8.35586
G0 F3600 X81.608 Y61.333
G1 F1800 X83.043 Y60.093 E8.46467
G1 X84.76 Y59.108 E8.57824
G1 X86.091 Y58.715 E8.65787
G1 X87.535 Y58.468 E8.74192
G1 X111.637 Y56.984 E10.12736
G1 X112.691 Y56.964 E10.18784
G1 X113.408 Y56.986 E10.229
G1 X114.582 Y57.045 E10.29644
G1 X115.337 Y57.128 E10.34002
G1 X116.435 Y57.298 E10.40376
G1 X117.211 Y57.449 E10.44912
G1 X118.126 Y57.664 E10.50305
G1 X119.312 Y58.003 E10.57382
G1 X120.123 Y58.277 E10.62293
G1 X120.855 Y58.553 E10.66782
G1 X121.64 Y58.881 E10.71663
G1 X122.474 Y59.268 E10.76938
G1 X123.579 Y59.861 E10.84133
G1 X124.617 Y60.478 E10.91061
G1 X125.777 Y61.268 E10.99113
G1 X126.488 Y61.803 E11.04218
G1 X127.649 Y62.81 E11.13036
G1 X128.339 Y63.459 E11.18471
G1 X128.884 Y64.017 E11.22946
G1 X129.753 Y65.009 E11.30512
G1 X130.268 Y65.646 E11.35212
G1 X130.811 Y66.381 E11.40455
G1 X131.512 Y67.421 E11.47651
G1 X132.506 Y69.092 E11.58806
G1 X133.106 Y71.521 E11.73161
G1 X133.067 Y73.552 E11.84815
G1 X132.679 Y75.149 E11.94245
G1 X132.194 Y76.469 E12.02313
G1 X131.242 Y77.983 E12.12574
G1 X130.901 Y78.488 E12.1607
G1 X130.358 Y79.232 E12.21354
G1 X129.91 Y79.802 E12.25514
G1 X129.392 Y80.411 E12.30101
G1 X128.579 Y81.304 E12.3703
G1 X127.509 Y82.327 E12.45523
G1 X126.68 Y83.036 E12.51782
G1 X125.838 Y83.675 E12.57846
G1 X124.943 Y84.307 E12.64132
G1 X124.28 Y84.731 E12.68647
G1 X123.507 Y85.187 E12.73797
G1 X122.069 Y85.92 E12.83057
G1 X121.189 Y86.313 E12.88587
G1 X120.168 Y86.715 E12.94882
G1 X118.948 Y87.11 E13.02239
G1 X117.874 Y87.4 E13.08622
G1 X116.81 Y87.636 E13.14875
G1 X115.461 Y87.845 E13.22707
G1 X114.552 Y87.947 E13.27955
G1 X113.061 Y88.033 E13.36524
G1 X111.663 Y88.016 E13.44545
G1 X86.975 Y86.512 E14.86452
G1 X85.332 Y86.095 E14.96177
G1 X84.175 Y85.557 E15.03498
G1 X82.505 Y84.527 E15.14755
G1 X80.996 Y82.923 E15.2739
G1 X79.955 Y81.111 E15.3938
G1 X79.384 Y79.07 E15.5154
G1 X79.298 Y78.499 E15.54853
G1 X79.296 Y66.588 E16.2319
G1 X79.509 Y65.172 E16.31406
G1 X80.319 Y63.097 E16.44186
G1 X81.608 Y61.333 E16.56721
G0 F3600 X81.904 Y61.605
G1 F1800 X83.275 Y60.421 E16.67114
G1 X84.917 Y59.479 E16.77975
G1 X86.204 Y59.099 E16.85674
G1 X87.56 Y58.867 E16.93567
G1 X111.645 Y57.384 E18.32013
G1 X112.679 Y57.364 E18.37947
G1 X113.388 Y57.385 E18.42017
G1 X114.538 Y57.443 E18.48623
G1 X115.293 Y57.526 E18.52981
G1 X116.359 Y57.691 E18.5917
G1 X117.135 Y57.842 E18.63705
G1 X118.016 Y58.049 E18.68898
G1 X119.184 Y58.382 E18.75866
G1 X119.982 Y58.651 E18.80697
G1 X120.701 Y58.922 E18.85106
G1 X121.472 Y59.244 E18.899
G1 X122.306 Y59.631 E18.95175
G1 X123.375 Y60.205 E19.02136
G1 X124.392 Y60.809 E19.08923
G1 X125.536 Y61.588 E19.16863
G1 X126.247 Y62.123 E19.21968
G1 X127.375 Y63.102 E19.30538
G1 X128.053 Y63.739 E19.35875
G1 X128.583 Y64.281 E19.40225
G1 X129.452 Y65.273 E19.47791
G1 X129.946 Y65.884 E19.52299
G1 X130.479 Y66.605 E19.57443
G1 X131.168 Y67.626 E19.6451
G1 X132.133 Y69.248 E19.75339
G1 X132.705 Y71.564 E19.89026
G1 X132.668 Y73.5 E20.00135
G1 X132.29 Y75.055 E20.09317
G1 X131.834 Y76.29 E20.1687
G1 X130.91 Y77.759 E20.26827
G1 X130.569 Y78.264 E20.30323
G1 X130.044 Y78.985 E20.3544
G1 X129.605 Y79.543 E20.39513
G1 X129.096 Y80.142 E20.44023
G1 X128.283 Y81.035 E20.50952
G1 X127.249 Y82.023 E20.59157
G1 X126.438 Y82.717 E20.65281
G1 X125.607 Y83.348 E20.71268
G1 X124.712 Y83.98 E20.77554
G1 X124.077 Y84.386 E20.81878
G1 X123.304 Y84.842 E20.87027
G1 X121.906 Y85.555 E20.96031
G1 X121.042 Y85.941 E21.0146
G1 X120.045 Y86.334 E21.07609
G1 X118.825 Y86.729 E21.14966
G1 X117.787 Y87.009 E21.21134
G1 X116.723 Y87.245 E21.27387
G1 X115.416 Y87.447 E21.34975
G1 X114.507 Y87.549 E21.40223
G1 X113.066 Y87.633 E21.48505
G1 X111.687 Y87.617 E21.56417
G1 X87.039 Y86.115 E22.98094
G1 X85.468 Y85.717 E23.07392
G1 X84.344 Y85.194 E23.14505
G1 X82.76 Y84.215 E23.25189
G1 X81.32 Y82.684 E23.37248
G1 X80.326 Y80.955 E23.4869
G1 X79.78 Y79.01 E23.60281
G1 X79.694 Y78.439 E23.63594
G1 X79.692 Y66.648 E24.31243
G1 X79.899 Y65.274 E24.39215
G1 X80.673 Y63.29 E24.51434
G1 X81.904 Y61.605 E24.63406
G0 F3600 X82.2 Y61.877
G1 F1800 X83.507 Y60.749 E24.73311
G1 X85.074 Y59.85 E24.83676
G1 X86.317 Y59.483 E24.91112
G1 X87.585 Y59.266 E24.98493
G1 X111.653 Y57.784 E26.36842
G1 X112.668 Y57.764 E26.42666
G1 X113.368 Y57.784 E26.46684
G1 X114.494 Y57.841 E26.53153
G1 X115.249 Y57.924 E26.5751
G1 X116.283 Y58.084 E26.63513
G1 X117.059 Y58.235 E26.68049
G1 X117.907 Y58.434 E26.73047
G1 X119.056 Y58.761 E26.79901
G1 X119.841 Y59.025 E26.84652
G1 X120.547 Y59.291 E26.88981
G1 X121.304 Y59.607 E26.93687
G1 X122.117 Y59.984 E26.98829
G1 X123.171 Y60.549 E27.0569
G1 X124.167 Y61.14 E27.12335
G1 X125.295 Y61.908 E27.20164
G1 X126.006 Y62.443 E27.25269
G1 X127.101 Y63.393 E27.33587
G1 X127.767 Y64.019 E27.38831
G1 X128.282 Y64.545 E27.43054
G1 X129.151 Y65.537 E27.50621
G1 X129.624 Y66.122 E27.54937
G1 X130.157 Y66.843 E27.60081
G1 X130.824 Y67.83 E27.66916
G1 X131.759 Y69.402 E27.7741
G1 X132.304 Y71.607 E27.90441
G1 X132.269 Y73.447 E28.01
G1 X131.901 Y74.96 E28.09934
G1 X131.473 Y76.114 E28.16995
G1 X130.578 Y77.535 E28.2663
G1 X130.237 Y78.04 E28.30126
G1 X129.729 Y78.738 E28.35079
G1 X129.3 Y79.284 E28.39063
G1 X128.8 Y79.873 E28.43496
G1 X128.006 Y80.746 E28.50267
G1 X126.989 Y81.719 E28.58342
G1 X126.196 Y82.398 E28.64332
G1 X125.376 Y83.021 E28.7024
G1 X124.496 Y83.643 E28.76423
G1 X123.874 Y84.041 E28.80659
G1 X123.101 Y84.497 E28.85809
G1 X121.743 Y85.19 E28.94556
G1 X120.895 Y85.569 E28.99885
G1 X119.922 Y85.953 E29.05886
G1 X118.702 Y86.348 E29.13244
G1 X117.7 Y86.618 E29.19198
G1 X116.636 Y86.854 E29.25451
G1 X115.371 Y87.049 E29.32794
G1 X114.462 Y87.151 E29.38042
G1 X113.07 Y87.233 E29.46042
G1 X111.711 Y87.218 E29.5384
G1 X87.103 Y85.718 E30.95287
G1 X85.604 Y85.339 E31.04158
G1 X84.513 Y84.831 E31.11063
G1 X83.014 Y83.901 E31.21184
G1 X81.644 Y82.445 E31.32654
G1 X80.698 Y80.799 E31.43547
G1 X80.176 Y78.95 E31.5457
G1 X80.09 Y78.379 E31.57883
G1 X80.088 Y66.707 E32.24849
G1 X80.288 Y65.377 E32.32566
G1 X81.027 Y63.483 E32.4423
G1 X82.2 Y61.877 E32.5564
G0 F3600 X82.496 Y62.15
G1 F1800 X83.739 Y61.077 E32.65062
G1 X85.231 Y60.221 E32.7493
G1 X86.43 Y59.867 E32.82103
G1 X87.61 Y59.665 E32.88972
G1 X111.661 Y58.184 E34.27223
G1 X112.656 Y58.164 E34.32933
G1 X113.348 Y58.184 E34.36904
G1 X114.45 Y58.239 E34.43235
G1 X115.205 Y58.322 E34.47593
G1 X116.207 Y58.477 E34.5341
G1 X116.983 Y58.628 E34.57946
G1 X117.798 Y58.819 E34.62748
G1 X118.929 Y59.14 E34.69494
G1 X119.7 Y59.399 E34.7416
G1 X120.393 Y59.66 E34.78409
G1 X121.136 Y59.97 E34.83028
G1 X121.949 Y60.347 E34.88169
G1 X122.967 Y60.893 E34.94797
G1 X123.942 Y61.471 E35.013
G1 X125.054 Y62.228 E35.09018
G1 X125.765 Y62.763 E35.14123
G1 X126.827 Y63.684 E35.22188
G1 X127.481 Y64.299 E35.27339
G1 X127.996 Y64.825 E35.31562
G1 X128.84 Y65.789 E35.38914
G1 X129.302 Y66.36 E35.43128
G1 X129.835 Y67.081 E35.48272
G1 X130.48 Y68.035 E35.54879
G1 X131.386 Y69.558 E35.65046
G1 X131.903 Y71.65 E35.7741
G1 X131.87 Y73.394 E35.87418
G1 X131.512 Y74.865 E35.96104
G1 X131.112 Y75.935 E36.02658
G1 X130.246 Y77.311 E36.11986
G1 X129.905 Y77.816 E36.15482
G1 X129.414 Y78.491 E36.20271
G1 X128.995 Y79.025 E36.24165
G1 X128.504 Y79.604 E36.2852
G1 X127.729 Y80.457 E36.35133
G1 X126.729 Y81.415 E36.43078
G1 X125.954 Y82.079 E36.48933
G1 X125.134 Y82.702 E36.54842
G1 X124.281 Y83.306 E36.60838
G1 X123.671 Y83.696 E36.64992
G1 X122.898 Y84.152 E36.70142
G1 X121.58 Y84.825 E36.78632
G1 X120.748 Y85.197 E36.83861
G1 X119.799 Y85.572 E36.89716
G1 X118.579 Y85.967 E36.97073
G1 X117.613 Y86.227 E37.02812
G1 X116.549 Y86.463 E37.09065
G1 X115.326 Y86.651 E37.16165
G1 X114.417 Y86.753 E37.21413
G1 X113.074 Y86.833 E37.29131
G1 X111.735 Y86.819 E37.36814
G1 X87.167 Y85.321 E38.78032
G1 X85.74 Y84.961 E38.86476
G1 X84.682 Y84.468 E38.93172
G1 X83.268 Y83.588 E39.02728
G1 X81.968 Y82.206 E39.13614
G1 X81.07 Y80.643 E39.23956
G1 X80.572 Y78.89 E39.34411
G1 X80.486 Y78.319 E39.37724
G1 X80.484 Y66.767 E40.04002
G1 X80.678 Y65.479 E40.11476
G1 X81.381 Y63.676 E40.22579
G1 X82.496 Y62.15 E40.33422
G0 F3600 X82.792 Y62.423
G1 F1800 X83.971 Y61.405 E40.42359
G1 X85.388 Y60.592 E40.51732
G1 X86.543 Y60.251 E40.58641
G1 X87.635 Y60.064 E40.64998
G1 X111.669 Y58.584 E42.03151
G1 X112.645 Y58.564 E42.08752
G1 X113.328 Y58.583 E42.12672
G1 X114.406 Y58.637 E42.18865
G1 X115.161 Y58.72 E42.23222
G1 X116.131 Y58.87 E42.28854
G1 X116.892 Y59.018 E42.33302
G1 X117.689 Y59.204 E42.37997
G1 X118.802 Y59.519 E42.44634
G1 X119.559 Y59.773 E42.49215
G1 X120.239 Y60.029 E42.53384
G1 X120.968 Y60.333 E42.57915
G1 X121.781 Y60.71 E42.63057
G1 X122.763 Y61.237 E42.69451
G1 X123.717 Y61.802 E42.75812
G1 X124.813 Y62.548 E42.83419
G1 X125.524 Y63.083 E42.88524
G1 X126.553 Y63.976 E42.96341
G1 X127.195 Y64.579 E43.01394
G1 X127.695 Y65.089 E43.05492
G1 X128.529 Y66.041 E43.12754
G1 X128.98 Y66.598 E43.16866
G1 X129.513 Y67.319 E43.2201
G1 X130.136 Y68.24 E43.28389
G1 X131.013 Y69.714 E43.3823
G1 X131.502 Y71.693 E43.49926
G1 X131.471 Y73.342 E43.59388
G1 X131.137 Y74.725 E43.67551
G1 X130.752 Y75.756 E43.73865
G1 X129.915 Y77.087 E43.82886
G1 X129.581 Y77.581 E43.86307
G1 X129.099 Y78.244 E43.9101
G1 X128.69 Y78.766 E43.94815
G1 X128.208 Y79.335 E43.99093
G1 X127.433 Y80.188 E44.05706
G1 X126.468 Y81.111 E44.13367
G1 X125.712 Y81.76 E44.19084
G1 X124.892 Y82.383 E44.24992
G1 X124.065 Y82.969 E44.30807
G1 X123.468 Y83.351 E44.34874
G1 X122.695 Y83.807 E44.40023
G1 X121.417 Y84.46 E44.48257
G1 X120.601 Y84.825 E44.53386
G1 X119.676 Y85.191 E44.59093
G1 X118.456 Y85.586 E44.6645
G1 X117.526 Y85.836 E44.71976
G1 X116.462 Y86.072 E44.78229
G1 X115.281 Y86.253 E44.85083
G1 X114.372 Y86.355 E44.90331
G1 X113.078 Y86.433 E44.97769
G1 X111.759 Y86.42 E45.05337
G1 X87.231 Y84.924 E46.46325
G1 X85.874 Y84.582 E46.54354
G1 X84.893 Y84.128 E46.60556
G1 X83.522 Y83.275 E46.6982
G1 X82.292 Y81.967 E46.80121
G1 X81.442 Y80.488 E46.89908
G1 X80.968 Y78.83 E46.99802
G1 X80.882 Y78.259 E47.03115
G1 X80.88 Y66.826 E47.6871
G1 X81.067 Y65.582 E47.75928
G1 X81.735 Y63.869 E47.86477
G1 X82.792 Y62.423 E47.96753
G0 F3600 X83.087 Y62.698
G1 F1800 X84.206 Y61.731 E48.05239
G1 X85.545 Y60.963 E48.14095
G1 X86.656 Y60.635 E48.20741
G1 X87.66 Y60.463 E48.26585
G1 X111.677 Y58.984 E49.64641
G1 X112.634 Y58.964 E49.70133
G1 X113.308 Y58.982 E49.74001
G1 X114.362 Y59.035 E49.80056
G1 X115.117 Y59.118 E49.84414
G1 X116.055 Y59.263 E49.89859
G1 X116.801 Y59.408 E49.94219
G1 X117.58 Y59.589 E49.98808
G1 X118.675 Y59.898 E50.05336
G1 X119.418 Y60.147 E50.09832
G1 X120.085 Y60.398 E50.1392
G1 X120.8 Y60.696 E50.18365
G1 X121.613 Y61.073 E50.23506
G1 X122.559 Y61.581 E50.29667
G1 X123.513 Y62.146 E50.36028
G1 X124.572 Y62.868 E50.43382
G1 X125.283 Y63.403 E50.48487
G1 X126.279 Y64.267 E50.56052
G1 X126.909 Y64.859 E50.61012
G1 X127.409 Y65.369 E50.65109
G1 X128.218 Y66.293 E50.72156
G1 X128.658 Y66.836 E50.76165
G1 X129.191 Y67.557 E50.8131
G1 X129.792 Y68.444 E50.87457
G1 X130.639 Y69.868 E50.96963
G1 X131.101 Y71.737 E51.08009
G1 X131.072 Y73.29 E51.16921
G1 X130.748 Y74.631 E51.24836
G1 X130.392 Y75.579 E51.30646
G1 X129.583 Y76.863 E51.39353
G1 X129.257 Y77.346 E51.42696
G1 X128.784 Y77.997 E51.47313
G1 X128.375 Y78.519 E51.51118
G1 X127.912 Y79.066 E51.55229
G1 X127.156 Y79.899 E51.61683
G1 X126.207 Y80.807 E51.69219
G1 X125.451 Y81.456 E51.74935
G1 X124.661 Y82.057 E51.8063
G1 X123.85 Y82.632 E51.86334
G1 X123.265 Y83.006 E51.90318
G1 X122.492 Y83.462 E51.95467
G1 X121.253 Y84.095 E52.0345
G1 X120.454 Y84.453 E52.08473
G1 X119.553 Y84.81 E52.14033
G1 X118.333 Y85.205 E52.21391
G1 X117.439 Y85.445 E52.26701
G1 X116.375 Y85.681 E52.32954
G1 X115.236 Y85.856 E52.39566
G1 X114.348 Y85.956 E52.44693
G1 X113.082 Y86.033 E52.5197
G1 X111.783 Y86.021 E52.59423
G1 X87.295 Y84.527 E54.00181
G1 X86.005 Y84.202 E54.07813
G1 X85.104 Y83.788 E54.13502
G1 X83.776 Y82.962 E54.22475
G1 X82.616 Y81.728 E54.32192
G1 X81.812 Y80.329 E54.4145
G1 X81.364 Y78.77 E54.50756
G1 X81.278 Y78.199 E54.54069
G1 X81.276 Y66.886 E55.18976
G1 X81.457 Y65.684 E55.2595
G1 X82.089 Y64.062 E55.35938
G1 X83.087 Y62.698 E55.45635
G0 F3600 X83.382 Y62.973
G1 F1800 X84.441 Y62.057 E55.53668
G1 X85.702 Y61.334 E55.62008
G1 X86.769 Y61.019 E55.68391
G1 X87.685 Y60.862 E55.73723
G1 X111.686 Y59.384 E57.11686
G1 X112.624 Y59.364 E57.17069
G1 X113.288 Y59.381 E57.2088
G1 X114.318 Y59.433 E57.26797
G1 X115.073 Y59.516 E57.31155
G1 X115.979 Y59.656 E57.36415
G1 X116.71 Y59.798 E57.40687
G1 X117.489 Y59.979 E57.45276
G1 X118.548 Y60.277 E57.51587
G1 X119.277 Y60.521 E57.55998
G1 X119.931 Y60.767 E57.60007
G1 X120.632 Y61.059 E57.64364
G1 X121.424 Y61.426 E57.69372
G1 X122.355 Y61.925 E57.75432
G1 X123.288 Y62.477 E57.81652
G1 X124.331 Y63.188 E57.88894
G1 X125.042 Y63.723 E57.93999
G1 X126.005 Y64.558 E58.01312
G1 X126.623 Y65.139 E58.06179
G1 X127.123 Y65.649 E58.10277
G1 X127.907 Y66.545 E58.17107
G1 X128.336 Y67.074 E58.21015
G1 X128.86 Y67.782 E58.26069
G1 X129.448 Y68.649 E58.32079
G1 X130.266 Y70.024 E58.41258
G1 X130.7 Y71.781 E58.51642
G1 X130.673 Y73.238 E58.60003
G1 X130.359 Y74.537 E58.6767
G1 X130.031 Y75.403 E58.72983
G1 X129.252 Y76.639 E58.81365
G1 X128.933 Y77.111 E58.84634
G1 X128.469 Y77.75 E58.89165
G1 X128.06 Y78.272 E58.92969
G1 X127.616 Y78.797 E58.96914
G1 X126.879 Y79.61 E59.0321
G1 X125.946 Y80.503 E59.1062
G1 X125.19 Y81.152 E59.16336
G1 X124.43 Y81.731 E59.21818
G1 X123.634 Y82.295 E59.27415
G1 X123.062 Y82.661 E59.31311
G1 X122.289 Y83.117 E59.3646
G1 X121.089 Y83.73 E59.44192
G1 X120.306 Y84.081 E59.49115
G1 X119.43 Y84.429 E59.54523
G1 X118.21 Y84.824 E59.6188
